X:156
T:Issoudun
Z:robin.beech@mcgill.ca
M:4/4
L:1/8
K:A
e efge | a2gf eagf | edcd efge | a2gf eagf | edcA BAGB | A3 ::
B c2c2 | B3B BABc | dcBA c2c2 | B3c BAGB | AEEA EFAE c2c2 |
B3B BABc | dcBA c2c2 | B3c BAGB | AEEA EFAE c2c2 |
B3B BABc | dcBA c2c2 | B3cBAGB | A3 |]
